X:1
T:Title
%%score { ( 1 4 ) | ( 2 3 ) }
L:1/8
Q:1/4=106
M:4/4
K:D
V:1 treble nm="Grand Piano"
V:4 treble 
V:2 bass 
V:3 bass 
V:1
 [FA]2 [FA]2 [FA]>[FA] [DF]>[FA] | [Fd]6[K:bass] (3D,E,F, | %2
w: E.~L.~Ashford * * * * *||
 E,2[K:treble] [Gc]>c c2[K:bass] (3E,F,E, | z2[K:treble] d>B A4 | [FA]2 [FA]2 [FA]>[FA] [DF]>[FA] | %5
w: |||
 [Fd]6[K:bass] (3D,E,F, | z2[K:treble] c>c d2 ^G2 | [CA]6 z2 | A2- [A,FA]2 [A,FA]2 [Fd]2 | %9
w: ||||
 G2 G2 [Gc]4[K:bass] | [Fd]>[Fd] [DAd]>[DAd] [DAc]2 [DGB]2 | [GB]4 z4 | F2 G>G A2 A2 | %13
w: ||||
 B2 c2 d2 cB | A2 z2 e3 e | [Fd]6 z2 |] %16
w: |||
V:2
 [D,D]2 [D,D]2 [D,D]>[D,D] [D,A,]>[D,D] | [D,A,]6 z2 | z2 A,>[K:treble][A,G] [A,G]2 z2 | %3
 z2 [A,F]>[DG] [DF]4 | [D,D]2 [D,D]2 [D,D]>[D,D] [D,A,]>[D,D] | [D,D]6 z2 | %6
 z2 [A,E]>[A,E] [E,^G,E]2 [E,B,D]2 | z4 A,2 z2 | D,2 z[K:treble] B[K:bass] D,2 [A,,A,]2 | %9
 [E,A,]2 [A,,A,]2 A,4 | [D,A,]>[D,A,] F,>F, G,2 G,2 | z4 F4 | [D,D]2 [B,D]>[B,D] [F,D]2 [F,A,D]2 | %13
 [G,D]2 [F,^A,F]2 [B,F]2 [^G,D=F][G,DF] | [A,DF]2 z2 [A,CG]3 [A,G] | [D,A,]6 z2 |] %16
V:3
 x8 | x8 | z2 A,,4[K:treble] z2 | x8 | x8 | x8 | x8 | A,,2 C,>E, z G,F,E, | %8
 z2 A,,2[K:treble][K:bass] z4 | z4 E,2 z2 | x8 | D,8 | x8 | x8 | x8 | x8 |] %16
V:4
 x8 | x6[K:bass] x2 | x2[K:treble] x4[K:bass] x2 | D,8[K:treble] | x8 | x6[K:bass] x2 | %6
 E,4[K:treble] z4 | A,4 z4 | [A,F]2 z2 z4 | d3 c z2[K:bass] A,,2 | x8 | D4- [DA]4 | x8 | x8 | x8 | %15
 x8 |] %16

